usr/share/icons/biglinux-icons-material-dark/16/actions/path-division.svg

<svg xmlns="http://www.w3.org/2000/svg" viewBox="0 0 16 16">
  <defs id="defs3051">
    <style type="text/css" id="current-color-scheme">
      .ColorScheme-Text {
        color:#dedede;
      }
      </style>
  </defs>
 <path style="fill:currentColor;fill-opacity:1;stroke:none" 
     d="M 9 2.03125 A 4.5 4.5 0 0 0 7.6992188 2.3789062 L 8.203125 3.2519531 A 3.5 3.5 0 0 1 9 3.0390625 L 9 2.03125 z M 10 2.0332031 L 10 3.0410156 A 3.5 3.5 0 0 1 10.796875 3.2519531 L 11.298828 2.3828125 A 4.5 4.5 0 0 0 10 2.0332031 z M 6.8339844 2.8808594 A 4.5 4.5 0 0 0 5.8808594 3.8339844 L 6.7539062 4.3359375 A 3.5 3.5 0 0 1 7.3339844 3.75 L 6.8339844 2.8808594 z M 12.166016 2.8808594 L 11.664062 3.7539062 A 3.5 3.5 0 0 1 12.25 4.3339844 L 13.119141 3.8339844 A 4.5 4.5 0 0 0 12.166016 2.8808594 z M 13.621094 4.6992188 L 12.748047 5.203125 A 3.5 3.5 0 0 1 12.960938 6 L 13.96875 6 A 4.5 4.5 0 0 0 13.621094 4.6992188 z M 5.3828125 4.7011719 A 4.5 4.5 0 0 0 5.0332031 6 L 2 6 L 2 14 L 10 14 L 10 10.96875 A 4.5 4.5 0 0 0 11.300781 10.621094 L 10.796875 9.7480469 A 3.5 3.5 0 0 1 10 9.9589844 L 10 6 L 6.0390625 6 A 3.5 3.5 0 0 1 6.2519531 5.203125 L 5.3828125 4.7011719 z M 3 7 L 5.0292969 7 A 4.5 4.5 0 0 0 9 10.966797 L 9 13 L 3 13 L 3 7 z M 6.0390625 7 L 9 7 L 9 9.9589844 A 3.5 3.5 0 0 1 6.0390625 7 z M 12.958984 7 A 3.5 3.5 0 0 1 12.748047 7.796875 L 13.617188 8.2988281 A 4.5 4.5 0 0 0 13.966797 7 L 12.958984 7 z M 12.246094 8.6640625 A 3.5 3.5 0 0 1 11.666016 9.25 L 12.166016 10.119141 A 4.5 4.5 0 0 0 13.119141 9.1660156 L 12.246094 8.6640625 z "
     class="ColorScheme-Text"
     />
 <path style="fill:currentColor;fill-opacity:0.5;stroke:none" 
     d="M 3 7 L 3 13 L 9 13 L 9 7 L 3 7 z "
     class="ColorScheme-Text"
     />
</svg>

<svg xmlns="http://www.w3.org/2000/svg" viewBox="0 0 16 16">
<defs id="defs3051">
<style id="current-color-scheme" type="text/css">
.ColorScheme-Text{color:#dedede}
</style>
</defs>
<path d="M9 2.031a4.5 4.5 0 0 0-1.3.348l.503.873A3.5 3.5 0 0 1 9 3.039zm1 .002v1.008a3.5 3.5 0 0 1 .797.211l.502-.87A4.5 4.5 0 0 0 10 2.034m-3.166.848a4.5 4.5 0 0 0-.953.953l.873.502a3.5 3.5 0 0 1 .58-.586zm5.332 0-.502.873a3.5 3.5 0 0 1 .586.58l.87-.5a4.5 4.5 0 0 0-.954-.953M13.621 4.7l-.873.504a3.5 3.5 0 0 1 .213.797h1.008a4.5 4.5 0 0 0-.348-1.3m-8.238.002A4.5 4.5 0 0 0 5.033 6H2v8h8v-3.031a4.5 4.5 0 0 0 1.3-.348l-.503-.873a3.5 3.5 0 0 1-.797.211V6H6.04a3.5 3.5 0 0 1 .212-.797zM3 7h2.03A4.5 4.5 0 0 0 9 10.967V13H3zm3.04 0H9v2.959A3.5 3.5 0 0 1 6.04 7m6.919 0a3.5 3.5 0 0 1-.211.797l.87.502A4.5 4.5 0 0 0 13.966 7zm-.713 1.664a3.5 3.5 0 0 1-.58.586l.5.87a4.5 4.5 0 0 0 .953-.954z" class="ColorScheme-Text" style="fill:currentColor;fill-opacity:1;stroke:none"/>
<path d="M3 7v6h6V7z" class="ColorScheme-Text" style="fill:currentColor;fill-opacity:.5;stroke:none"/>
</svg>
